image/achiments4.svg

<svg width="41" height="39" viewBox="0 0 41 39" fill="none" xmlns="http://www.w3.org/2000/svg">
<path d="M27.5177 25.7364C27.2153 25.6948 26.9319 25.5722 26.7013 25.3833C26.4707 25.1943 26.3026 24.947 26.217 24.6706C26.1314 24.3942 26.1319 24.1005 26.2185 23.8245C26.3051 23.5484 26.474 23.3015 26.7053 23.1133C26.9366 22.9251 27.2204 22.8034 27.523 22.7628C27.8256 22.7222 28.1342 22.7643 28.4121 22.8841C28.69 23.004 28.9255 23.1965 29.0906 23.4388C29.2556 23.6811 29.3432 23.963 29.343 24.2509C29.3655 24.4531 29.4704 24.6392 29.6357 24.77C29.801 24.9008 30.0138 24.966 30.2291 24.9519C30.4164 24.9253 30.5898 24.8429 30.7238 24.7168C30.8577 24.5906 30.9452 24.4273 30.9734 24.2509C30.9537 23.5451 30.6799 22.8667 30.1968 22.3268C29.7138 21.787 29.0503 21.4178 28.3152 21.2799V20.8793C28.3286 20.7757 28.3199 20.6707 28.2897 20.5703C28.2594 20.4699 28.2082 20.3763 28.1391 20.2948C28.0699 20.2133 27.9842 20.1456 27.8869 20.0956C27.7897 20.0457 27.6828 20.0146 27.5726 20.004C27.4624 19.9935 27.351 20.0037 27.2451 20.0342C27.1392 20.0647 27.0407 20.1148 26.9556 20.1815C26.8704 20.2482 26.8003 20.3303 26.7492 20.4229C26.6982 20.5155 26.6672 20.6167 26.6582 20.7207C26.6494 20.7733 26.6494 20.8268 26.6582 20.8793V21.2799C25.9231 21.4178 25.2596 21.787 24.7766 22.3268C24.2936 22.8667 24.0197 23.5451 24 24.2509C24.0346 25.0914 24.4214 25.8848 25.0758 26.4572C25.7301 27.0297 26.5986 27.3347 27.4911 27.3053C27.7929 27.3485 28.0752 27.4722 28.3045 27.6619C28.5338 27.8517 28.7005 28.0994 28.7848 28.3757C28.8691 28.6519 28.8675 28.9452 28.7801 29.2206C28.6927 29.4961 28.5232 29.7421 28.2918 29.9295C28.0604 30.117 27.7767 30.2379 27.4745 30.278C27.1723 30.3182 26.8641 30.2757 26.5867 30.1559C26.3093 30.036 26.0743 29.8436 25.9095 29.6017C25.7447 29.3597 25.657 29.0783 25.657 28.7908C25.6374 28.6091 25.5511 28.4395 25.413 28.3113C25.2749 28.1831 25.0936 28.1043 24.9005 28.0885C24.7073 28.0726 24.5143 28.1208 24.3547 28.2247C24.1952 28.3285 24.0792 28.4815 24.0266 28.6573C24.0178 28.7098 24.0178 28.7633 24.0266 28.8159C24.0463 29.5216 24.3201 30.2001 24.8032 30.7399C25.2862 31.2798 25.9497 31.649 26.6848 31.7869V32.1207C26.6714 32.2243 26.6801 32.3293 26.7103 32.4297C26.7406 32.5301 26.7918 32.6237 26.8609 32.7052C26.9301 32.7867 27.0158 32.8544 27.1131 32.9044C27.2103 32.9543 27.3172 32.9854 27.4274 32.996C27.5376 33.0065 27.649 32.9963 27.7549 32.9658C27.8609 32.9353 27.9593 32.8852 28.0444 32.8185C28.1296 32.7518 28.1997 32.6697 28.2508 32.5771C28.3018 32.4845 28.3328 32.3833 28.3418 32.2793C28.3506 32.2267 28.3506 32.1732 28.3418 32.1207V31.7869C29.0769 31.649 29.7404 31.2798 30.2234 30.7399C30.7064 30.2001 30.9803 29.5216 31 28.8159C30.9874 28.3979 30.8872 27.9864 30.7051 27.6051C30.523 27.2237 30.2627 26.8801 29.939 26.5939C29.6154 26.3076 29.2348 26.0845 28.8193 25.9374C28.4037 25.7902 27.9614 25.7219 27.5177 25.7364Z" fill="#E93B3C"/>
<path d="M36.4148 20.6557C35.3746 19.1085 33.8991 17.8691 32.1555 17.078C32.0609 17.0339 31.9582 17.0079 31.8531 17.0016C31.748 16.9952 31.6426 17.0085 31.5429 17.0408C31.4433 17.0732 31.3513 17.1238 31.2722 17.1899C31.1931 17.256 31.1286 17.3363 31.0821 17.4261C31.0357 17.5159 31.0083 17.6135 31.0016 17.7134C30.9949 17.8133 31.009 17.9134 31.043 18.0081C31.077 18.1028 31.1303 18.1902 31.1999 18.2653C31.2694 18.3405 31.3539 18.4018 31.4484 18.4459C33.5527 19.409 35.1683 21.1267 35.9399 23.2214C36.7114 25.3161 36.5759 27.6162 35.5629 29.6159L35.4096 29.8992C35.3107 30.0715 35.2865 30.2737 35.3422 30.4627C35.3978 30.6517 35.529 30.8125 35.7077 30.911C35.8238 30.9675 35.9521 30.998 36.0826 31C36.226 30.9958 36.3661 30.9573 36.4897 30.888C36.6133 30.8186 36.7165 30.7207 36.7896 30.6034C37.6527 29.0578 38.0674 27.3218 37.9911 25.5736C37.9147 23.8254 37.3501 22.128 36.3551 20.6557H36.4148Z" fill="#E93B3C"/>
<path d="M29 16C28.7348 16 28.4804 16.1054 28.2929 16.2929C28.1054 16.4804 28 16.7348 28 17C28 17.2652 28.1054 17.5196 28.2929 17.7071C28.4804 17.8946 28.7348 18 29 18C29.2652 18 29.5196 17.8946 29.7071 17.7071C29.8946 17.5196 30 17.2652 30 17C30 16.7348 29.8946 16.4804 29.7071 16.2929C29.5196 16.1054 29.2652 16 29 16Z" fill="#E93B3C"/>
<path d="M23.5585 33.5654C21.4612 32.601 19.851 30.8809 19.082 28.7833C18.313 26.6858 18.4481 24.3825 19.4577 22.38L19.6105 22.0964C19.6593 22.0086 19.6895 21.9125 19.6993 21.8136C19.709 21.7147 19.6982 21.6149 19.6674 21.52C19.6367 21.4251 19.5865 21.3369 19.5199 21.2606C19.4534 21.1842 19.3716 21.1212 19.2794 21.0751C19.0913 20.9919 18.8778 20.9773 18.6791 21.034C18.4805 21.0908 18.3105 21.2149 18.2012 21.3831C16.9166 23.7037 16.6502 26.4163 17.4606 28.9244C18.2711 31.4324 20.092 33.5304 22.5227 34.7568L22.8708 34.9271C22.9769 34.9752 23.0929 35.0001 23.2104 35C23.418 34.9863 23.6131 34.9003 23.7586 34.7584C23.9042 34.6164 23.9901 34.4284 24 34.23C23.9916 34.0925 23.9467 33.9594 23.8694 33.8431C23.7922 33.7268 23.6852 33.6312 23.5585 33.5654Z" fill="#E93B3C"/>
<path d="M26.4845 35C26.356 35 26.2328 35.0527 26.1419 35.1464C26.051 35.2402 26 35.3674 26 35.5C26 35.6326 26.051 35.7598 26.1419 35.8536C26.2328 35.9473 26.356 36 26.4845 36H26.5155C26.644 36 26.7672 35.9473 26.8581 35.8536C26.949 35.7598 27 35.6326 27 35.5C27 35.3674 26.949 35.2402 26.8581 35.1464C26.7672 35.0527 26.644 35 26.5155 35H26.4845Z" fill="#E93B3C"/>
<path d="M31.0399 13.2747C30.9391 13.0542 30.8191 12.8423 30.6812 12.6414H32.7648C33.7409 12.6414 34.677 12.2679 35.3672 11.6031C36.0574 10.9383 36.4452 10.0367 36.4452 9.09651C36.4452 8.15636 36.0574 7.25472 35.3672 6.58993C34.677 5.92514 33.7409 5.55167 32.7648 5.55167H26.3519C26.7313 5.01951 26.9527 4.39766 26.9921 3.7532C27.0315 3.10875 26.8874 2.46617 26.5754 1.8948C26.2634 1.32343 25.7954 0.844974 25.2218 0.511051C24.6481 0.177128 23.9907 0.000421665 23.3205 0H3.68038C2.70429 0 1.76816 0.373474 1.07796 1.03826C0.387754 1.70305 0 2.60469 0 3.54484C0 4.48499 0.387754 5.38664 1.07796 6.05143C1.76816 6.71621 2.70429 7.08969 3.68038 7.08969H10.0933C9.67276 7.68073 9.44663 8.38 9.44432 9.09651C9.44286 9.81358 9.66933 10.5139 10.0933 11.1033H8.02682C7.26208 11.1024 6.51601 11.3309 5.8923 11.7571C5.26859 12.1833 4.79821 12.786 4.54654 13.4816C4.29487 14.1771 4.27441 14.9309 4.48799 15.6382C4.70157 16.3455 5.13859 16.9711 5.73832 17.4281C4.97539 18.0147 4.48498 18.8687 4.37454 19.803C4.2641 20.7372 4.54263 21.6755 5.14912 22.4123C5.32137 22.6234 5.51917 22.8139 5.73832 22.9798C4.97539 23.5664 4.48498 24.4204 4.37454 25.3546C4.2641 26.2889 4.54263 27.2272 5.14912 27.964C5.32137 28.175 5.51917 28.3656 5.73832 28.5315C5.142 28.9894 4.7081 29.6144 4.49662 30.3202C4.28514 31.026 4.30651 31.7776 4.55778 32.4711C4.80906 33.1647 5.27782 33.7659 5.89927 34.1917C6.52073 34.6175 7.26417 34.8469 8.02682 34.848H17.4626C18.8974 36.3255 20.6678 37.4628 22.6353 38.171C24.6028 38.8792 26.7137 39.1389 28.8029 38.9299C30.892 38.7208 32.9024 38.0486 34.6767 36.966C36.451 35.8834 37.9409 34.4197 39.0297 32.6898C40.1184 30.9598 40.7765 29.0105 40.9523 26.9946C41.1281 24.9787 40.8168 22.9509 40.0428 21.0703C39.2689 19.1896 38.0533 17.5071 36.4914 16.1546C34.9294 14.8021 33.0635 13.8164 31.0399 13.2747ZM32.7477 7.08969C33.3003 7.08969 33.8303 7.30112 34.221 7.67747C34.6118 8.05383 34.8313 8.56427 34.8313 9.09651C34.8313 9.62876 34.6118 10.1392 34.221 10.5156C33.8303 10.8919 33.3003 11.1033 32.7477 11.1033H13.1076C12.555 11.1033 12.0251 10.8919 11.6343 10.5156C11.2436 10.1392 11.0241 9.62876 11.0241 9.09651C11.0241 8.56427 11.2436 8.05383 11.6343 7.67747C12.0251 7.30112 12.555 7.08969 13.1076 7.08969H32.7477ZM3.71454 5.55167C3.44092 5.55167 3.16999 5.49976 2.9172 5.39891C2.66441 5.29806 2.43472 5.15023 2.24124 4.96388C2.04777 4.77753 1.89429 4.5563 1.78958 4.31282C1.68487 4.06934 1.63098 3.80838 1.63098 3.54484C1.63098 3.2813 1.68487 3.02034 1.78958 2.77687C1.89429 2.53339 2.04777 2.31215 2.24124 2.1258C2.43472 1.93945 2.66441 1.79163 2.9172 1.69078C3.16999 1.58993 3.44092 1.53802 3.71454 1.53802H23.3546C23.6282 1.53802 23.8992 1.58993 24.152 1.69078C24.4048 1.79163 24.6344 1.93945 24.8279 2.1258C25.0214 2.31215 25.1749 2.53339 25.2796 2.77687C25.3843 3.02034 25.4382 3.2813 25.4382 3.54484C25.4382 3.80838 25.3843 4.06934 25.2796 4.31282C25.1749 4.5563 25.0214 4.77753 24.8279 4.96388C24.6344 5.15023 24.4048 5.29806 24.152 5.39891C23.8992 5.49976 23.6282 5.55167 23.3546 5.55167H3.71454ZM8.03536 12.6414H27.6754C27.9922 12.6429 28.3045 12.7132 28.5891 12.847C28.202 12.8141 27.8178 12.7976 27.4364 12.7976C25.6463 12.7985 23.874 13.1397 22.2211 13.8017C20.5682 14.4636 19.0672 15.4332 17.8042 16.655H8.02682C7.47423 16.655 6.94426 16.4436 6.55352 16.0672C6.16278 15.6909 5.94326 15.1804 5.94326 14.6482C5.94326 14.1159 6.16278 13.6055 6.55352 13.2291C6.94426 12.8528 7.47423 12.6414 8.02682 12.6414H8.03536ZM8.03536 18.193H16.4123C15.4903 19.4073 14.7914 20.7649 14.3458 22.2067H8.02682C7.47423 22.2067 6.94426 21.9952 6.55352 21.6189C6.16278 21.2425 5.94326 20.7321 5.94326 20.1999C5.94326 19.6676 6.16278 19.1572 6.55352 18.7808C6.94426 18.4045 7.47423 18.193 8.02682 18.193H8.03536ZM8.03536 23.7447H14.0128C13.8905 24.4598 13.8277 25.1831 13.8249 25.9078C13.8279 26.5269 13.8735 27.1451 13.9615 27.7583H8.02682C7.47423 27.7583 6.94426 27.5469 6.55352 27.1706C6.16278 26.7942 5.94326 26.2838 5.94326 25.7515C5.94326 25.2193 6.16278 24.7088 6.55352 24.3325C6.94426 23.9561 7.47423 23.7447 8.02682 23.7447H8.03536ZM8.03536 33.31C7.48276 33.31 6.9528 33.0986 6.56206 32.7222C6.17132 32.3459 5.9518 31.8354 5.9518 31.3032C5.9518 30.7709 6.17132 30.2605 6.56206 29.8841C6.9528 29.5078 7.48276 29.2964 8.03536 29.2964H14.269C14.6672 30.7285 15.3139 32.0855 16.1817 33.31H8.03536ZM27.4107 37.4717C25.0362 37.4733 22.7144 36.7967 20.7391 35.5274C18.7638 34.2581 17.2236 32.4531 16.3133 30.3407C15.403 28.2283 15.1636 25.9033 15.6252 23.6598C16.0868 21.4164 17.2287 19.3551 18.9066 17.7367C20.5845 16.1183 22.7229 15.0155 25.0516 14.5677C27.3802 14.1199 29.7944 14.3472 31.9888 15.221C34.1833 16.0947 36.0595 17.5756 37.3801 19.4764C38.7008 21.3772 39.4066 23.6124 39.4083 25.8996C39.406 28.9666 38.1406 31.9075 35.8898 34.077C33.639 36.2465 30.5865 37.4674 27.4022 37.4717H27.4107Z" fill="#E93B3C"/>
</svg>

<?xml version="1.0" encoding="UTF-8" standalone="no"?>
<svg width="41" xmlns="http://www.w3.org/2000/svg" viewBox="0 0 41 39" height="39">
 <path d="m27.518 25.736c-0.303-0.041-0.586-0.164-0.817-0.353-0.23-0.189-0.398-0.436-0.484-0.712-0.086-0.277-0.085-0.571 0.001-0.847 0.087-0.276 0.256-0.522 0.487-0.711 0.232-0.188 0.515-0.31 0.818-0.35 0.303-0.041 0.611 0.001 0.889 0.121s0.514 0.312 0.679 0.555c0.165 0.242 0.252 0.524 0.252 0.812 0.023 0.202 0.127 0.388 0.293 0.519 0.165 0.131 0.378 0.196 0.593 0.182 0.187-0.027 0.361-0.109 0.495-0.235s0.221-0.29 0.249-0.466c-0.019-0.706-0.293-1.384-0.776-1.924s-1.147-0.909-1.882-1.047v-0.401c0.014-0.103 0.005-0.208-0.025-0.309-0.031-0.1-0.082-0.194-0.151-0.275-0.069-0.082-0.155-0.149-0.252-0.199s-0.204-0.081-0.314-0.092c-0.111-0.01-0.222 0-0.328 0.03-0.106 0.031-0.204 0.081-0.289 0.148-0.086 0.066-0.156 0.148-0.207 0.241s-0.082 0.194-0.091 0.298c-0.009 0.052-0.009 0.106 0 0.158v0.401c-0.735 0.138-1.398 0.507-1.881 1.047s-0.757 1.218-0.777 1.924c0.035 0.84 0.421 1.634 1.076 2.206 0.654 0.573 1.523 0.878 2.415 0.848 0.302 0.043 0.584 0.167 0.813 0.357 0.23 0.19 0.396 0.437 0.481 0.714 0.084 0.276 0.083 0.569-0.005 0.845-0.087 0.275-0.257 0.521-0.488 0.709-0.232 0.187-0.515 0.308-0.818 0.348-0.302 0.04-0.61-0.002-0.887-0.122-0.278-0.12-0.513-0.312-0.677-0.554-0.165-0.242-0.253-0.524-0.253-0.811-0.02-0.182-0.106-0.351-0.244-0.48-0.138-0.128-0.319-0.207-0.513-0.223-0.193-0.015-0.386 0.033-0.545 0.137-0.16 0.103-0.276 0.257-0.328 0.432-0.009 0.053-0.009 0.106 0 0.159 0.019 0.706 0.293 1.384 0.776 1.924s1.147 0.909 1.882 1.047v0.334c-0.014 0.103-0.005 0.208 0.025 0.309 0.031 0.1 0.082 0.194 0.151 0.275 0.069 0.082 0.155 0.149 0.252 0.199s0.204 0.081 0.314 0.092c0.111 0.01 0.222 0 0.328-0.03 0.106-0.031 0.204-0.081 0.289-0.148 0.086-0.066 0.156-0.148 0.207-0.241s0.082-0.194 0.091-0.298c0.009-0.052 0.009-0.106 0-0.158v-0.334c0.735-0.138 1.398-0.507 1.881-1.047s0.757-1.218 0.777-1.924c-0.013-0.418-0.113-0.83-0.295-1.211s-0.442-0.725-0.766-1.011-0.704-0.51-1.12-0.657c-0.415-0.147-0.858-0.215-1.301-0.201z" fill="#E93B3C"/>
 <path d="m36.415 20.656c-1.04-1.548-2.516-2.787-4.259-3.578-0.095-0.044-0.198-0.07-0.303-0.076-0.105-0.007-0.21 0.006-0.31 0.039-0.1 0.032-0.192 0.083-0.271 0.149s-0.143 0.146-0.19 0.236c-0.046 0.09-0.074 0.188-0.08 0.287-0.007 0.1 0.007 0.2 0.041 0.295s0.087 0.182 0.157 0.257c0.069 0.075 0.154 0.137 0.248 0.181 2.105 0.963 3.72 2.681 4.492 4.775 0.771 2.095 0.636 4.395-0.377 6.395l-0.153 0.283c-0.099 0.173-0.124 0.375-0.068 0.564s0.187 0.349 0.366 0.448c0.116 0.057 0.244 0.087 0.375 0.089 0.143-0.004 0.283-0.043 0.407-0.112 0.123-0.069 0.226-0.167 0.3-0.285 0.863-1.545 1.277-3.281 1.201-5.029-0.076-1.749-0.641-3.446-1.636-4.918h0.06z" fill="#E93B3C"/>
 <path d="m29 16c-0.265 0-0.52 0.105-0.707 0.293-0.188 0.187-0.293 0.442-0.293 0.707s0.105 0.52 0.293 0.707c0.187 0.188 0.442 0.293 0.707 0.293s0.52-0.105 0.707-0.293c0.188-0.187 0.293-0.442 0.293-0.707s-0.105-0.52-0.293-0.707c-0.187-0.188-0.442-0.293-0.707-0.293z" fill="#E93B3C"/>
 <path d="m23.558 33.565c-2.097-0.964-3.707-2.684-4.476-4.782-0.769-2.097-0.634-4.401 0.376-6.403l0.152-0.284c0.049-0.087 0.08-0.184 0.089-0.282 0.01-0.099-0.001-0.199-0.032-0.294-0.03-0.095-0.081-0.183-0.147-0.259-0.067-0.077-0.148-0.14-0.241-0.186-0.188-0.083-0.401-0.098-0.6-0.041s-0.369 0.181-0.478 0.349c-1.284 2.321-1.551 5.033-0.74 7.541 0.81 2.508 2.631 4.606 5.062 5.833l0.348 0.17c0.106 0.048 0.222 0.073 0.339 0.073 0.208-0.014 0.403-0.1 0.549-0.242 0.145-0.142 0.231-0.33 0.241-0.528-0.008-0.138-0.053-0.271-0.131-0.387-0.077-0.116-0.184-0.212-0.311-0.278z" fill="#E93B3C"/>
 <path d="m26.484 35c-0.128 0-0.251 0.053-0.342 0.146-0.091 0.094-0.142 0.221-0.142 0.354s0.051 0.26 0.142 0.354c0.091 0.093 0.214 0.146 0.342 0.146h0.032c0.128 0 0.251-0.053 0.342-0.146 0.091-0.094 0.142-0.221 0.142-0.354s-0.051-0.26-0.142-0.354c-0.091-0.093-0.214-0.146-0.342-0.146h-0.032z" fill="#E93B3C"/>
 <path d="m31.04 13.275c-0.101-0.221-0.221-0.433-0.359-0.634h2.084c0.976 0 1.912-0.373 2.602-1.038s1.078-1.566 1.078-2.5065c0-0.9401-0.388-1.8418-1.078-2.5066s-1.626-1.0382-2.602-1.0382h-6.413c0.379-0.5322 0.601-1.154 0.64-1.7985 0.04-0.6444-0.105-1.287-0.417-1.8584s-0.78-1.0498-1.353-1.3838c-0.574-0.33387-1.231-0.51058-1.902-0.511h-19.64c-0.9757 0-1.9118 0.37347-2.602 1.0383-0.69025 0.6647-1.078 1.5664-1.078 2.5065 0 0.9402 0.38775 1.8418 1.078 2.5066 0.6902 0.6648 1.6263 1.0383 2.6024 1.0383h6.4126c-0.4202 0.591-0.6464 1.2903-0.6487 2.0068-0.0014 0.7171 0.225 1.4175 0.6487 2.0065h-2.0662c-0.7647-0.001-1.5108 0.228-2.1345 0.654s-1.0941 1.029-1.3458 1.725c-0.2516 0.695-0.2721 1.449-0.0585 2.156 0.2136 0.708 0.6506 1.333 1.2503 1.79-0.7629 0.587-1.2533 1.441-1.3638 2.375-0.1104 0.934 0.1681 1.873 0.7746 2.609 0.1723 0.211 0.3701 0.402 0.5892 0.568-0.7629 0.586-1.2533 1.44-1.3638 2.375-0.1104 0.934 0.1681 1.872 0.7746 2.609 0.1723 0.211 0.3701 0.402 0.5892 0.568-0.5963 0.457-1.0302 1.082-1.2417 1.788s-0.1901 1.458 0.0612 2.151c0.2513 0.694 0.72 1.295 1.3415 1.721 0.6214 0.426 1.3649 0.655 2.1275 0.656h9.4362c1.434 1.478 3.205 2.615 5.172 3.323 1.968 0.708 4.079 0.968 6.168 0.759s4.099-0.881 5.874-1.964c1.774-1.083 3.264-2.546 4.353-4.276 1.088-1.73 1.746-3.68 1.922-5.695 0.176-2.016-0.135-4.044-0.909-5.925-0.774-1.88-1.99-3.563-3.552-4.915-1.562-1.353-3.427-2.339-5.451-2.88zm1.708-6.1853c0.552 0 1.082 0.2114 1.473 0.5878 0.391 0.3763 0.61 0.8868 0.61 1.419 0 0.5323-0.219 1.0425-0.61 1.4195-0.391 0.376-0.921 0.587-1.473 0.587h-19.64c-0.553 0-1.083-0.211-1.474-0.587-0.39-0.377-0.61-0.8872-0.61-1.4195 0-0.5322 0.22-1.0427 0.61-1.419 0.391-0.3764 0.921-0.5878 1.474-0.5878h19.64zm-29.034-1.538c-0.2736 0-0.5445-0.0519-0.7973-0.1528-0.2528-0.1008-0.4825-0.2487-0.676-0.435-0.1934-0.1864-0.3469-0.4076-0.4516-0.6511s-0.1586-0.5044-0.1586-0.768c0-0.2635 0.0539-0.5245 0.1586-0.7679 0.1047-0.2435 0.2582-0.4647 0.4516-0.6511 0.1935-0.1864 0.4232-0.3342 0.676-0.435 0.2528-0.1009 0.5237-0.1528 0.7973-0.1528h19.64c0.274 0 0.545 0.0519 0.798 0.1528 0.253 0.1008 0.482 0.2486 0.676 0.435 0.193 0.1864 0.347 0.4076 0.452 0.6511 0.104 0.2434 0.158 0.5044 0.158 0.7679 0 0.2636-0.054 0.5245-0.158 0.768-0.105 0.2435-0.259 0.4647-0.452 0.6511-0.194 0.1863-0.423 0.3342-0.676 0.435-0.253 0.1009-0.524 0.1528-0.797 0.1528h-19.64zm4.3209 7.0893h19.64c0.317 0.002 0.629 0.072 0.914 0.206-0.387-0.033-0.771-0.049-1.153-0.049-1.79 0-3.562 0.342-5.215 1.004s-3.154 1.631-4.417 2.853h-9.7772c-0.5526 0-1.0825-0.211-1.4733-0.588-0.3907-0.376-0.6102-0.887-0.6102-1.419s0.2195-1.042 0.6102-1.419c0.3908-0.376 0.9207-0.588 1.4733-0.588h0.0086zm0 5.552h8.3766c-0.922 1.214-1.621 2.572-2.066 4.014h-6.3192c-0.5526 0-1.0825-0.212-1.4733-0.588-0.3907-0.377-0.6102-0.887-0.6102-1.419s0.2195-1.043 0.6102-1.419c0.3908-0.377 0.9207-0.588 1.4733-0.588h0.0086zm0 5.552h5.9776c-0.123 0.715-0.185 1.438-0.188 2.163 0.003 0.619 0.049 1.237 0.137 1.85h-5.9352c-0.5526 0-1.0825-0.211-1.4733-0.587-0.3907-0.377-0.6102-0.887-0.6102-1.419 0-0.533 0.2195-1.043 0.6102-1.42 0.3908-0.376 0.9207-0.587 1.4733-0.587h0.0086zm0 9.565c-0.5526 0-1.0826-0.211-1.4733-0.588-0.3908-0.376-0.6103-0.887-0.6103-1.419s0.2195-1.043 0.6103-1.419c0.3907-0.376 0.9207-0.588 1.4733-0.588h6.2336c0.398 1.432 1.045 2.79 1.913 4.014h-8.1466zm19.376 4.162c-2.375 0.001-4.697-0.675-6.672-1.945-1.975-1.269-3.515-3.074-4.426-5.186-0.91-2.113-1.149-4.438-0.688-6.681 0.462-2.244 1.604-4.305 3.282-5.923 1.677-1.619 3.816-2.721 6.145-3.169 2.328-0.448 4.742-0.221 6.937 0.653 2.194 0.874 4.071 2.355 5.391 4.255 1.321 1.901 2.027 4.136 2.028 6.424-0.002 3.067-1.267 6.008-3.518 8.177s-5.304 3.39-8.488 3.395h0.009z" fill="#E93B3C"/>
</svg>
